MODULE MainModule
	PROC main()
		MoveAbsJ [[0.554432,-0.0468977,0.96606,-0.44048,-90.8898,85.1703],[9E+09,9E+09,9E+09,9E+09,9E+09,9E+09]]\NoEOffs, v100, z50, tool0;
		MoveJ [[396.84,3.50,755.38],[0.729005,-0.0709241,0.0762508,0.676541],[-1,-1,1,1],[9E+09,9E+09,9E+09,9E+09,9E+09,9E+09]], v100, z50, tool0;
		MoveL [[397.04,185.54,662.55],[0.729014,-0.0709244,0.0762613,0.67653],[0,-1,0,1],[9E+09,9E+09,9E+09,9E+09,9E+09,9E+09]], v100, z50, tool0;
		MoveL [[397.04,257.11,662.54],[0.729013,-0.0709206,0.0762785,0.676529],[0,-1,0,1],[9E+09,9E+09,9E+09,9E+09,9E+09,9E+09]], v100, z50, tool0;
		MoveL [[237.65,257.12,662.53],[0.729003,-0.0709161,0.0763206,0.676536],[0,-1,0,1],[9E+09,9E+09,9E+09,9E+09,9E+09,9E+09]], v100, z50, tool0;
		MoveL [[220.86,257.12,804.53],[0.726643,-0.089441,0.0962778,0.67433],[0,-1,0,1],[9E+09,9E+09,9E+09,9E+09,9E+09,9E+09]], v100, z50, tool0;
		MoveL [[167.80,307.69,804.53],[0.726665,-0.0894555,0.096283,0.674304],[0,-1,0,1],[9E+09,9E+09,9E+09,9E+09,9E+09,9E+09]], v100, z50, tool0;
		MoveL [[117.51,307.70,804.52],[0.72666,-0.0894639,0.0962992,0.674306],[0,-1,0,1],[9E+09,9E+09,9E+09,9E+09,9E+09,9E+09]], v100, z50, tool0;
		MoveL [[54.46,307.71,804.51],[0.726628,-0.0894482,0.0963442,0.674335],[0,-1,0,1],[9E+09,9E+09,9E+09,9E+09,9E+09,9E+09]], v100, z50, tool0;
		MoveL [[-5.98,307.71,804.50],[0.775262,-0.0964351,0.0893616,0.617805],[1,0,-1,1],[9E+09,9E+09,9E+09,9E+09,9E+09,9E+09]], v100, z50, tool0;
		MoveL [[-5.98,154.96,899.77],[0.769757,-0.127497,0.128335,0.612167],[1,0,-1,1],[9E+09,9E+09,9E+09,9E+09,9E+09,9E+09]], v100, z50, tool0;
		MoveL [[-5.95,49.97,899.75],[0.769752,-0.127499,0.128313,0.612178],[1,0,-1,1],[9E+09,9E+09,9E+09,9E+09,9E+09,9E+09]], v100, z50, tool0;
		MoveL [[-91.76,184.71,899.75],[0.769759,-0.12751,0.128304,0.612169],[1,0,-1,1],[9E+09,9E+09,9E+09,9E+09,9E+09,9E+09]], v100, z50, tool0;
		MoveL [[-136.25,97.19,899.76],[0.769758,-0.127471,0.128323,0.612174],[1,0,-2,1],[9E+09,9E+09,9E+09,9E+09,9E+09,9E+09]], v100, z50, tool0;
		MoveL [[-177.65,97.19,846.13],[0.769763,-0.127472,0.128322,0.612167],[1,0,-2,1],[9E+09,9E+09,9E+09,9E+09,9E+09,9E+09]], v100, z50, tool0;
		MoveL [[-264.88,97.19,792.22],[0.769783,-0.12748,0.128314,0.612142],[1,0,-2,1],[9E+09,9E+09,9E+09,9E+09,9E+09,9E+09]], v100, z50, tool0;
		MoveL [[-252.70,222.52,791.22],[0.769799,-0.12749,0.128303,0.612122],[1,0,-1,1],[9E+09,9E+09,9E+09,9E+09,9E+09,9E+09]], v100, z50, tool0;
		MoveL [[-318.33,259.48,736.17],[0.805188,-0.131604,0.131158,0.56316],[1,0,-1,1],[9E+09,9E+09,9E+09,9E+09,9E+09,9E+09]], v100, z50, tool0;
		MoveL [[-160.81,259.49,736.15],[0.775789,-0.109481,0.102202,0.61296],[1,0,-1,1],[9E+09,9E+09,9E+09,9E+09,9E+09,9E+09]], v100, z50, tool0;
		MoveL [[-40.80,147.80,877.83],[0.776639,-0.10346,0.106961,0.612117],[1,0,-1,1],[9E+09,9E+09,9E+09,9E+09,9E+09,9E+09]], v100, z50, tool0;
		MoveL [[39.99,147.80,877.83],[0.770804,-0.135065,0.115127,0.611853],[0,-1,0,1],[9E+09,9E+09,9E+09,9E+09,9E+09,9E+09]], v100, z50, tool0;
		MoveL [[196.64,147.80,877.83],[0.713169,-0.131609,0.118135,0.678317],[0,-1,0,1],[9E+09,9E+09,9E+09,9E+09,9E+09,9E+09]], v100, z50, tool0;
		MoveL [[196.64,147.80,695.79],[0.720349,-0.099483,0.0832545,0.681373],[0,-1,0,1],[9E+09,9E+09,9E+09,9E+09,9E+09,9E+09]], v100, z50, tool0;
		MoveL [[347.72,147.41,567.32],[0.696434,-0.0524444,0.0372091,0.714734],[0,-1,0,1],[9E+09,9E+09,9E+09,9E+09,9E+09,9E+09]], v100, z50, tool0;
		MoveL [[471.12,147.26,552.18],[0.696434,-0.0524409,0.0372076,0.714735],[0,-1,0,1],[9E+09,9E+09,9E+09,9E+09,9E+09,9E+09]], v100, z50, tool0;
		MoveL [[525.63,147.26,454.43],[0.627422,-0.0487778,0.0418967,0.77602],[0,-1,0,1],[9E+09,9E+09,9E+09,9E+09,9E+09,9E+09]], v100, z50, tool0;
		MoveL [[506.18,-150.31,574.30],[0.658241,-0.0388949,0.0311816,0.751154],[-1,-1,1,1],[9E+09,9E+09,9E+09,9E+09,9E+09,9E+09]], v100, z50, tool0;
		MoveL [[441.63,-150.31,688.31],[0.658242,-0.0388998,0.0311813,0.751154],[-1,-1,1,1],[9E+09,9E+09,9E+09,9E+09,9E+09,9E+09]], v100, z50, tool0;
		MoveL [[322.17,-150.31,688.31],[0.692463,-0.0403029,0.0293393,0.719729],[-1,-1,1,1],[9E+09,9E+09,9E+09,9E+09,9E+09,9E+09]], v100, z50, tool0;
		MoveL [[322.17,-150.31,688.32],[0.691214,-0.0851302,0.0638388,0.714773],[-1,-1,1,1],[9E+09,9E+09,9E+09,9E+09,9E+09,9E+09]], v100, z50, tool0;
		MoveL [[213.60,-158.79,688.32],[0.691212,-0.0851324,0.0638419,0.714775],[-1,-1,1,1],[9E+09,9E+09,9E+09,9E+09,9E+09,9E+09]], v100, z50, tool0;
		MoveL [[213.60,-305.02,777.13],[0.691212,-0.085127,0.0638432,0.714775],[-1,-1,1,1],[9E+09,9E+09,9E+09,9E+09,9E+09,9E+09]], v100, z50, tool0;
		MoveL [[213.60,-109.94,777.13],[0.691209,-0.0851312,0.0638381,0.714778],[-1,-1,1,1],[9E+09,9E+09,9E+09,9E+09,9E+09,9E+09]], v100, z50, tool0;
		MoveL [[213.60,-109.94,810.39],[0.691215,-0.0851262,0.0638475,0.714772],[-1,-1,1,1],[9E+09,9E+09,9E+09,9E+09,9E+09,9E+09]], v100, z50, tool0;
		MoveL [[73.11,-6.67,810.39],[0.691225,-0.0851053,0.0638611,0.714763],[-1,-1,1,1],[9E+09,9E+09,9E+09,9E+09,9E+09,9E+09]], v100, z50, tool0;
		MoveL [[73.10,-189.22,810.39],[0.691207,-0.0851327,0.0638442,0.71478],[-1,-1,1,1],[9E+09,9E+09,9E+09,9E+09,9E+09,9E+09]], v100, z50, tool0;
		MoveL [[73.10,-306.21,810.39],[0.691205,-0.0851278,0.0638383,0.714782],[-1,-1,1,1],[9E+09,9E+09,9E+09,9E+09,9E+09,9E+09]], v100, z50, tool0;
		MoveL [[-99.36,-306.70,810.39],[0.766884,-0.0880409,0.0727145,0.631546],[-2,0,2,1],[9E+09,9E+09,9E+09,9E+09,9E+09,9E+09]], v100, z50, tool0;
		MoveL [[22.02,-306.71,810.39],[0.731234,-0.0835753,0.0766547,0.672634],[-1,-1,1,1],[9E+09,9E+09,9E+09,9E+09,9E+09,9E+09]], v100, z50, tool0;
		MoveL [[22.02,-306.71,810.39],[0.731233,-0.0835786,0.0766573,0.672634],[-1,-1,1,1],[9E+09,9E+09,9E+09,9E+09,9E+09,9E+09]], v100, z50, tool0;
		MoveL [[22.01,-97.84,810.39],[0.731115,-0.084665,0.0780952,0.672461],[-1,-1,1,1],[9E+09,9E+09,9E+09,9E+09,9E+09,9E+09]], v100, z50, tool0;
		MoveL [[22.00,-25.60,898.49],[0.731121,-0.0846516,0.0780852,0.672458],[-1,-1,1,1],[9E+09,9E+09,9E+09,9E+09,9E+09,9E+09]], v100, z50, tool0;
		MoveL [[22.01,5.38,792.45],[0.731128,-0.0846274,0.0781032,0.672451],[-1,-1,1,1],[9E+09,9E+09,9E+09,9E+09,9E+09,9E+09]], v100, z50, tool0;
		MoveL [[22.00,27.65,792.46],[0.731122,-0.0846346,0.078092,0.672458],[0,-1,0,1],[9E+09,9E+09,9E+09,9E+09,9E+09,9E+09]], v100, z50, tool0;
		MoveL [[22.00,125.05,792.46],[0.731122,-0.084637,0.0780759,0.672459],[0,-1,0,1],[9E+09,9E+09,9E+09,9E+09,9E+09,9E+09]], v100, z50, tool0;
		MoveL [[22.01,290.68,792.46],[0.731128,-0.0846592,0.078103,0.672447],[0,-1,0,1],[9E+09,9E+09,9E+09,9E+09,9E+09,9E+09]], v100, z50, tool0;
		MoveL [[22.00,372.43,792.45],[0.731122,-0.084649,0.0780866,0.672456],[0,-1,-1,1],[9E+09,9E+09,9E+09,9E+09,9E+09,9E+09]], v100, z50, tool0;
		MoveL [[22.00,369.42,686.51],[0.731122,-0.0846519,0.0780834,0.672457],[0,-1,-1,1],[9E+09,9E+09,9E+09,9E+09,9E+09,9E+09]], v100, z50, tool0;
		MoveL [[22.00,369.42,534.52],[0.731122,-0.0846695,0.0780813,0.672454],[0,-1,-1,1],[9E+09,9E+09,9E+09,9E+09,9E+09,9E+09]], v100, z50, tool0;
		MoveL [[22.01,369.42,484.05],[0.73112,-0.0846292,0.0780858,0.672461],[0,-1,-1,1],[9E+09,9E+09,9E+09,9E+09,9E+09,9E+09]], v100, z50, tool0;
	ENDPROC
ENDMODULE