MMC:CFG_1.0::
MMC_REAL_DATATYPE:

-name stringdig      -def_name string       -value_rule DEF \
   -use_value """""" \
   -object_type VAR
   
-name iodev       -def_name iodev        -value_rule NONE \
   -object_type VAR
   
-name dir       -def_name dir        -value_rule NONE \
   -object_type VAR
   
-name dionum      -def_name dioval       -value_rule DEF \
   -use_value 0 \
   -object_type CONST
   
-name loadsession   -def_name loadid           -value_rule NONE \
   -object_type VAR
   
-name progdisp    -def_name pdisp         -value_rule DEF \
   -use_value [[[0,0,0],[1,0,0,0]],[0,0,0,0,0,0]] \
   -object_type "TASK PERS" -validate_hook hirule_validate_progdisp
 
-name identno   -def_name id           -value_rule SEQ \
   -use_value 10 \
   -object_type CONST

-name robtarget   -def_name p           -value_rule CUR \
   -method hirule_robtarget \
   -object_type CONST -validate_hook hirule_validate_robtarget

-name o_robtarget -def_name orgp_       -value_rule DEF \
   -use_value [[0,0,0],[1,0,0,0],[0,0,0,0],[9E9,9E9,9E9,9E9,9E9,9E9]] \
   -object_type CONST
      
-name jointtarget   -def_name jpos      -value_rule CUR \
   -method hirule_jointtarget \
   -object_type CONST

-name o_jointtarget -def_name orgjpos_    -value_rule DEF \
   -use_value [[0,0,0,0,0,0],[9E9,9E9,9E9,9E9,9E9,9E9]] \
   -object_type CONST
   
-name confdata    -def_name robconf     -value_rule DEF \
   -use_value [0,0,0,0] \
   -object_type VAR

-name extjoint    -def_name extjoint     -value_rule DEF \
   -use_value [9E9,9E9,9E9,9E9,9E9,9E9] \
   -object_type VAR
   
-name robjoint    -def_name robjoint     -value_rule DEF \
   -use_value [0,0,0,0,0,0] \
   -object_type VAR   

-name speeddata   -def_name speed        -value_rule DEF \
   -use_value [1000,500,5000,1000] \
   -object_type CONST

-name zonedata    -def_name zone         -value_rule DEF \
   -use_value [FALSE,50,75,75,7.5,75,7.5] \
   -object_type CONST

-name stoppoint -def_name stoptype  -value_rule DEF \
   -use_value 1 \
   -object_type CONST

-name stoppointdata -def_name stoppoint  -value_rule DEF \
   -use_value [1,TRUE,[100,100,0,20],0,0,"",0,0] \
   -object_type CONST
   
-name tooldata    -def_name tool         -value_rule DEF \
   -use_value "[TRUE,[[0,0,0],[1,0,0,0]],[-1,[0,0,0],[1,0,0,0],0,0,0]]" \
   -object_type "TASK PERS"  -method hirule_tooldata -validate_hook hirule_validate_tooldata   

-name wobjdata    -def_name wobj         -value_rule DEF \
   -use_value [FALSE,TRUE,"",[[0,0,0],[1,0,0,0]],[[0,0,0],[1,0,0,0]]] \
   -object_type "TASK PERS" -validate_hook hirule_validate_wobjdata
 
-name loaddata    -def_name load         -value_rule DEF \
   -use_value [0,[0,0,0],[1,0,0,0],0,0,0] \
   -object_type "TASK PERS" -validate_hook hirule_validate_loaddata

-name syncident		-def_name sync	-value_rule NONE \
					-object_type VAR

-name tasks			-def_name tasklist	-value_rule NONE \
					-object_type PERS
					
-name socketdev   -def_name socket   -value_rule NONE \
   -object_type VAR
   
-name clock       -def_name clock       -value_rule NONE \
   -object_type VAR
   
-name errdomain    -def_name errdomain     -value_rule DEF \
   -use_value 0 \
   -object_type VAR

-name errtype    -def_name errtype     -value_rule DEF \
   -use_value 0 \
   -object_type VAR

-name trapdata    -def_name trapdata     -value_rule NONE \
   -object_type VAR
   
-name triggdata   -def_name trigg           -value_rule NONE \
   -object_type VAR
   
-name wztemporary       -def_name wztemp        -value_rule DEF \
   -use_value [0] \
   -object_type VAR

-name wzstationary      -def_name wzstat        -value_rule DEF \
   -use_value [0] \
   -object_type VAR

-name shapedata         -def_name shape         -value_rule NONE \
   -object_type VAR
   
-name indcnvdata    -def_name indcnvdata     -value_rule DEF \
   -use_value [2000,25000,5,1,0,0,0] \
   -object_type VAR   
